!!!OTL: DANZ RUEBER DANZ NUEBER
!!!ARE: Europa, Mitteleuropa, Deutschland, Franken
!!!SCT: E1024
!!!YEM: Copyright 1995, estate of Helmut Schaffrath.
**kern
*ICvox
*Ivox
*M3/8
*k[f#]
*G:
{8g
=1
8f#
8a
8a
=2
8g
8b}
{8b
=3
8.a
16b
8cc
=4
4b}
{8g
=5
8f#
8a
8a
=6
8g
8b}
{8dd
=7
8cc
8a
8f#
=8
4g}
{8dd
=9
8dd
8cc
8cc
=10
4b}
{8dd
=11
8dd
8cc
8cc
=12
4b}
{8g
=13
8f#
8a
8a
=14
8g
8b}
{8dd
=15
8cc
8a
8f#
=16
4g}
==
!!!AGN: Tanz - Lied
!!!ONB: ESAC (Essen Associative Code) Database: ERK3
!!!AMT: simple triple
!!!AIN: vox
!!!EED: Helmut Schaffrath
!!!EEV: 1.0
*-
